branches/V9.0/projeqtor/view/css/customIcons/new/iconProject.svg

<?xml version="1.0" encoding="utf-8"?>
<!-- Generator: Adobe Illustrator 16.0.0, SVG Export Plug-In . SVG Version: 6.00 Build 0)  -->
<!DOCTYPE svg PUBLIC "-//W3C//DTD SVG 1.1//EN" "http://www.w3.org/Graphics/SVG/1.1/DTD/svg11.dtd">
<svg version="1.1" xmlns="http://www.w3.org/2000/svg" xmlns:xlink="http://www.w3.org/1999/xlink" x="0px" y="0px" width="128px"
	 height="128px" viewBox="0 0 128 128" enable-background="new 0 0 128 128" xml:space="preserve">
<g id="Calque_1" xmlns:serif="http://www.serif.com/">
	<g id="path17">
		<path fill="none" stroke="#FF0000" stroke-width="5" stroke-linecap="round" stroke-linejoin="round" stroke-miterlimit="10" d="
			M71.969,5.142c0.07,0.052,0.158,0.127,0.23,0.2l0.035,4.354l0.047,5.598l0.029,3.637l3.471,1.091l1.76,0.554
			c2.346,0.737,4.605,1.665,6.916,2.836c2.617,1.326,3.318,1.682,4.643,1.682c2.188,0,2.584-0.394,7.43-5.214
			c1.104-1.099,2.56-2.547,3.267-3.134h0.062c0.897,0.752,2.875,2.746,5.477,5.371l0.27,0.272c2.795,2.822,4.92,4.965,5.709,5.933
			c-0.606,0.724-2.041,2.163-3.135,3.259l-3.785,3.797l-2.535,2.542l1.601,3.214l1.222,2.452c1.233,2.48,2.079,4.558,2.832,6.947
			l0.553,1.761l1.09,3.472l3.641,0.03l5.6,0.046l4.354,0.036c0.072,0.073,0.148,0.161,0.199,0.233V72.02
			c-0.051,0.071-0.127,0.158-0.199,0.231l-4.363,0.035l-5.605,0.047l-3.676,0.031l-1.065,3.519l-0.396,1.311
			c-0.736,2.433-2.313,6.138-3.666,8.611l-0.563,1.027l-1.799,3.282l2.643,2.649l3.854,3.863c1.531,1.538,2.578,2.646,3.142,3.27
			c-0.761,0.901-2.854,3-5.614,5.765l-0.218,0.218c-2.668,2.671-4.698,4.705-5.635,5.487c-0.724-0.606-2.149-2.03-3.238-3.117
			c-4.938-4.919-5.233-5.214-7.411-5.214c-1.281,0-1.826,0.271-4.854,1.771c-2.529,1.256-4.365,2.004-6.773,2.764l-1.711,0.539
			l-3.467,1.092l-0.028,3.635l-0.048,5.6l-0.034,4.354c-0.054,0.053-0.113,0.106-0.168,0.149c-0.927,0.051-3.41,0.059-7.507,0.071
			l-1.559,0.003c-3.738,0-6.145-0.033-6.939-0.063c-0.067-0.031-0.147-0.085-0.208-0.142l-0.036-4.389l-0.046-5.605l-0.03-3.676
			l-3.518-1.066l-1.315-0.398c-2.382-0.72-5.877-2.203-8.497-3.609l-1.18-0.633l-3.268-1.756l-2.627,2.617l-3.864,3.852
			c-1.537,1.528-2.644,2.578-3.268,3.142c-0.952-0.792-3.237-3.082-5.834-5.685l-0.183-0.186c-2.644-2.646-4.66-4.669-5.446-5.605
			c0.614-0.729,2.048-2.168,3.141-3.266l3.788-3.801l2.536-2.544l-1.602-3.216l-1.22-2.448c-1.243-2.495-2.091-4.571-2.836-6.943
			l-0.553-1.761l-1.09-3.473l-3.639-0.029l-5.605-0.044l-4.353-0.035c-0.073-0.071-0.148-0.159-0.201-0.229V56.11
			c0.052-0.072,0.127-0.159,0.2-0.231l4.357-0.036l5.6-0.046l3.655-0.03l1.081-3.491l0.476-1.536c0.666-2.152,1.964-5.3,3.02-7.32
			l1.103-2.108l1.695-3.241l-2.574-2.597l-3.812-3.846c-1.183-1.193-2.614-2.638-3.195-3.343v-0.054
			c0.752-0.899,2.75-2.879,5.38-5.486l0.268-0.265c2.719-2.695,4.941-4.898,5.929-5.707c0.727,0.611,2.146,2.027,3.229,3.106
			c4.331,4.316,5.232,5.214,7.528,5.214c1.113,0,2.211-0.341,3.128-0.96c0.238-0.13,0.804-0.43,1.635-0.846
			c2.105-1.052,4.482-2.015,6.695-2.71l1.761-0.554l3.469-1.092l0.03-3.637l0.046-5.598l0.036-4.365
			c0.068-0.07,0.149-0.142,0.215-0.189H71.969"/>
	</g>
	<path id="path19" fill="none" stroke="#FF0000" stroke-width="5" stroke-miterlimit="10" d="M61.816,87.85
		c-1.379-0.146-3.955-0.703-5.245-1.131c-8.315-2.759-14.352-9.656-16.09-18.389c-0.481-2.418-0.48-6.247,0.002-8.671
		c1.965-9.871,9.304-17.207,19.187-19.178c2.396-0.478,6.232-0.476,8.66,0.003c6.564,1.297,12.027,4.943,15.65,10.443
		c5.23,7.945,5.23,18.2,0,26.146c-3.598,5.461-9.127,9.163-15.561,10.42C66.828,87.803,63.211,87.999,61.816,87.85z"/>
</g>
<g id="Calque_2">
</g>
</svg>

<?xml version="1.0" encoding="UTF-8" standalone="no"?>
<!DOCTYPE svg PUBLIC "-//W3C//DTD SVG 1.1//EN" "http://www.w3.org/Graphics/SVG/1.1/DTD/svg11.dtd">
<svg width="100%" height="100%" viewBox="0 0 128 128" version="1.1" xmlns="http://www.w3.org/2000/svg" xmlns:xlink="http://www.w3.org/1999/xlink" xml:space="preserve" xmlns:serif="http://www.serif.com/" style="fill-rule:evenodd;clip-rule:evenodd;stroke-linecap:round;stroke-linejoin:round;stroke-miterlimit:10;">
    <g id="path17">
        <path d="M71.969,5.142C72.039,5.194 72.127,5.269 72.199,5.342L72.234,9.696L72.281,15.294L72.31,18.931L75.781,20.022L77.541,20.576C79.886,21.313 82.146,22.241 84.457,23.412C87.074,24.738 87.776,25.094 89.099,25.094C91.287,25.094 91.683,24.7 96.53,19.88C97.634,18.781 99.089,17.333 99.796,16.746L99.858,16.746C100.755,17.498 102.732,19.492 105.334,22.117L105.604,22.389C108.399,25.211 110.523,27.354 111.313,28.322C110.706,29.046 109.271,30.485 108.178,31.581L104.393,35.378L101.858,37.92L103.458,41.134L104.679,43.586C105.913,46.066 106.759,48.144 107.511,50.533L108.064,52.294L109.154,55.766L112.795,55.796L118.394,55.842L122.748,55.878C122.821,55.951 122.896,56.039 122.948,56.111L122.948,72.02C122.896,72.091 122.82,72.178 122.748,72.251L118.385,72.286L112.78,72.333L109.103,72.364L108.038,75.883L107.642,77.194C106.906,79.626 105.329,83.331 103.977,85.805L103.414,86.832L101.615,90.114L104.258,92.763L108.111,96.627C109.643,98.165 110.689,99.273 111.253,99.896C110.492,100.798 108.399,102.896 105.638,105.661L105.421,105.879C102.753,108.55 100.722,110.584 99.786,111.366C99.063,110.76 97.636,109.336 96.548,108.249C91.61,103.33 91.315,103.035 89.136,103.035C87.855,103.035 87.31,103.306 84.282,104.806C81.753,106.062 79.917,106.81 77.509,107.57L75.798,108.109L72.331,109.201L72.302,112.836L72.255,118.436L72.22,122.79C72.167,122.843 72.108,122.896 72.052,122.939C71.126,122.99 68.643,122.998 64.546,123.011L62.987,123.013C59.249,123.013 56.842,122.98 56.048,122.95C55.981,122.919 55.901,122.865 55.84,122.809L55.804,118.42L55.758,112.815L55.728,109.139L52.21,108.072L50.895,107.674C48.513,106.954 45.018,105.47 42.398,104.064L41.218,103.431L37.95,101.676L35.323,104.293L31.459,108.144C29.922,109.673 28.815,110.722 28.191,111.286C27.239,110.494 24.954,108.204 22.357,105.601L22.174,105.416C19.53,102.769 17.514,100.747 16.728,99.81C17.342,99.081 18.776,97.642 19.869,96.545L23.657,92.744L26.193,90.2L24.591,86.985L23.371,84.536C22.128,82.041 21.28,79.965 20.535,77.593L19.982,75.832L18.892,72.36L15.253,72.33L9.648,72.286L5.295,72.251C5.222,72.179 5.147,72.092 5.094,72.021L5.094,56.11C5.146,56.038 5.221,55.951 5.294,55.879L9.651,55.843L15.251,55.797L18.906,55.767L19.987,52.276L20.463,50.74C21.129,48.588 22.427,45.44 23.483,43.42L24.586,41.312L26.281,38.071L23.707,35.474L19.895,31.628C18.712,30.435 17.281,28.99 16.7,28.285L16.7,28.231C17.452,27.332 19.45,25.352 22.08,22.745L22.348,22.48C25.067,19.785 27.289,17.582 28.277,16.773C29.004,17.384 30.423,18.8 31.506,19.879C35.837,24.195 36.738,25.093 39.034,25.093C40.147,25.093 41.245,24.752 42.162,24.133C42.4,24.003 42.966,23.703 43.797,23.287C45.902,22.235 48.279,21.272 50.492,20.577L52.253,20.023L55.722,18.931L55.752,15.294L55.798,9.696L55.834,5.331C55.902,5.261 55.983,5.189 56.049,5.142L71.969,5.142" style="fill:none;fill-rule:nonzero;stroke:rgb(255,0,0);stroke-width:5px;"/>
    </g>
    <path id="path19" d="M61.816,87.85C60.437,87.704 57.861,87.147 56.571,86.719C48.256,83.96 42.219,77.063 40.481,68.33C40,65.912 40.001,62.083 40.483,59.659C42.448,49.788 49.787,42.452 59.67,40.481C62.066,40.003 65.902,40.005 68.33,40.484C74.894,41.781 80.357,45.427 83.98,50.927C89.211,58.872 89.211,69.127 83.98,77.073C80.383,82.534 74.853,86.236 68.42,87.493C66.828,87.803 63.211,87.999 61.816,87.85Z" style="fill:none;fill-rule:nonzero;stroke:rgb(255,0,0);stroke-width:5px;stroke-linecap:butt;stroke-linejoin:miter;"/>
</svg>
